austria/municipalities/40708.svg

<?xml version="1.0" encoding="UTF-8"?>
<!DOCTYPE svg PUBLIC "-//W3C//DTD SVG 1.1//EN" "http://www.w3.org/Graphics/SVG/1.1/DTD/svg11.dtd">
<svg xmlns="http://www.w3.org/2000/svg" version="1.1" width="166px" height="207px" style="shape-rendering:geometricPrecision; text-rendering:geometricPrecision; image-rendering:optimizeQuality; fill-rule:evenodd; clip-rule:evenodd" xmlns:xlink="http://www.w3.org/1999/xlink">
<g><path style="opacity:1" fill="#000000" d="M -0.5,-0.5 C 54.8333,-0.5 110.167,-0.5 165.5,-0.5C 165.5,44.1667 165.5,88.8333 165.5,133.5C 157.503,172.498 134.169,196.831 95.5,206.5C 86.8333,206.5 78.1667,206.5 69.5,206.5C 29.593,196.928 6.25968,171.928 -0.5,131.5C -0.5,87.5 -0.5,43.5 -0.5,-0.5 Z"/></g>
<g><path style="opacity:1" fill="#fe9900" d="M 3.5,3.5 C 49.1667,3.5 94.8333,3.5 140.5,3.5C 138.257,11.3159 134.423,18.3159 129,24.5C 127.667,22.5 126.333,20.5 125,18.5C 120.528,26.8889 115.861,35.2222 111,43.5C 109.885,42.0001 109.052,40.3334 108.5,38.5C 107.833,37.1667 107.167,37.1667 106.5,38.5C 102.983,46.1973 99.4833,53.8639 96,61.5C 94.6667,59.5 93.3333,57.5 92,55.5C 90.3333,58.8333 88.6667,62.1667 87,65.5C 86.5004,58.8417 86.3337,52.175 86.5,45.5C 90.1501,45.3584 93.6501,46.0251 97,47.5C 97.5,47.1667 98,46.8333 98.5,46.5C 96.684,44.1831 94.684,42.0165 92.5,40C 95.2954,38.9639 97.962,37.6305 100.5,36C 89.9622,32.1276 79.2955,31.6276 68.5,34.5C 63.5539,31.057 59.0539,27.057 55,22.5C 54,28.5 53,34.5 52,40.5C 44.0889,45.2008 37.5889,51.3675 32.5,59C 26.8042,59.1701 21.1376,59.6701 15.5,60.5C 18.8333,65.1667 22.1667,69.8333 25.5,74.5C 22.7103,84.0188 21.877,93.6855 23,103.5C 20.2903,107.753 17.457,111.92 14.5,116C 19.2018,116.172 23.8685,116.672 28.5,117.5C 29.7134,120.095 31.0468,122.595 32.5,125C 31.4325,127.639 29.7658,129.805 27.5,131.5C 26.5726,129.887 25.7393,128.221 25,126.5C 20.3163,135.202 14.6496,143.202 8,150.5C 6.03254,144.999 4.69921,139.332 4,133.5C 3.50001,90.1679 3.33334,46.8346 3.5,3.5 Z"/></g>
<g><path style="opacity:1" fill="#006632" d="M 142.5,3.5 C 148.833,3.5 155.167,3.5 161.5,3.5C 161.83,9.86818 161.496,16.2015 160.5,22.5C 153.352,27.8141 147.019,33.9808 141.5,41C 144.244,41.8035 146.911,42.8035 149.5,44C 139.675,48.8278 131.341,55.4945 124.5,64C 126.779,64.4728 128.779,65.4728 130.5,67C 121.131,69.8504 112.798,74.517 105.5,81C 107.878,81.5112 110.212,82.1779 112.5,83C 103.934,88.2306 95.9343,94.2306 88.5,101C 91.7021,101.198 94.7021,102.031 97.5,103.5C 89.0783,107.212 81.0783,111.712 73.5,117C 75.2182,117.346 76.8849,117.846 78.5,118.5C 79.521,119.002 79.6877,119.668 79,120.5C 71.245,124.959 63.745,129.793 56.5,135C 59.5,136 62.5,137 65.5,138C 55.5606,141.301 46.8939,146.635 39.5,154C 41.7148,155.044 44.0481,155.71 46.5,156C 38.7006,162.464 31.2006,169.298 24,176.5C 17.8904,170.823 13.2237,164.157 10,156.5C 9.33333,154.833 9.33333,153.167 10,151.5C 15.4139,145.253 20.2472,138.586 24.5,131.5C 25.4274,133.113 26.2607,134.779 27,136.5C 32.4093,128.946 37.0759,120.946 41,112.5C 42.2985,115.006 43.2985,117.673 44,120.5C 48.9369,111.626 53.6036,102.626 58,93.5C 57.432,103.915 59.7654,104.915 65,96.5C 67.0488,90.0677 69.3821,83.7344 72,77.5C 73.1965,80.0891 74.1965,82.7558 75,85.5C 82.1592,77.8588 87.8259,69.1921 92,59.5C 93.1145,60.9999 93.9479,62.6666 94.5,64.5C 95.1667,65.8333 95.8333,65.8333 96.5,64.5C 99.9759,56.7374 103.643,49.0707 107.5,41.5C 108.806,42.9122 109.64,44.5789 110,46.5C 110.667,47.8333 111.333,47.8333 112,46.5C 116.619,38.2612 120.952,29.9278 125,21.5C 126.163,23.2852 126.83,25.2852 127,27.5C 128.147,28.4581 129.147,28.1247 130,26.5C 135.751,19.6635 139.917,11.9968 142.5,3.5 Z"/></g>
<g><path style="opacity:1" fill="#fe9900" d="M 159.5,24.5 C 160.833,42.8212 161.5,61.4878 161.5,80.5C 161.333,99.1667 161.167,117.833 161,136.5C 153.149,172.351 131.315,194.185 95.5,202C 67.6753,205.806 44.0086,197.806 24.5,178C 32.8333,170.333 41.1667,162.667 49.5,155C 47.2115,154.178 44.8782,153.511 42.5,153C 45.5,150.833 48.5,148.667 51.5,146.5C 52.2249,150.532 53.0582,154.532 54,158.5C 57.8334,154.924 61.8334,151.59 66,148.5C 76.6667,151.167 87.3333,151.167 98,148.5C 101.655,151.486 105.322,154.486 109,157.5C 110.227,152.476 111.56,147.476 113,142.5C 120.734,136.887 127.234,130.054 132.5,122C 137.563,121.752 142.563,121.085 147.5,120C 143.58,116.91 140.58,113.077 138.5,108.5C 141.077,97.9771 141.077,87.4771 138.5,77C 141.451,73.0459 144.784,69.3793 148.5,66C 143.5,65 138.5,64 133.5,63C 132.707,61.9148 132.04,60.7481 131.5,59.5C 137.84,53.0048 145.173,47.8381 153.5,44C 150.648,42.4091 147.648,41.0758 144.5,40C 149.031,34.3034 154.031,29.1368 159.5,24.5 Z"/></g>
<g><path style="opacity:1" fill="#fe9900" d="M 71.5,45.5 C 73.1667,45.5 74.8333,45.5 76.5,45.5C 76.6665,56.505 76.4998,67.505 76,78.5C 68.1937,70.6937 60.3604,62.8604 52.5,55C 58.368,50.7326 64.7014,47.566 71.5,45.5 Z"/></g>
<g><path style="opacity:1" fill="#fe9900" d="M 45.5,61.5 C 52.479,68.479 59.479,75.479 66.5,82.5C 67.5827,83.365 67.7494,84.365 67,85.5C 56.5821,86.4866 46.0821,86.8199 35.5,86.5C 36.5065,77.1293 39.8398,68.796 45.5,61.5 Z"/></g>
<g><path style="opacity:1" fill="#fe9900" d="M 122.5,71.5 C 123.75,71.5774 124.583,72.244 125,73.5C 126.252,77.6777 127.418,81.8443 128.5,86C 122.833,86.6667 117.167,86.6667 111.5,86C 117.058,83.1971 116.725,81.1971 110.5,80C 114.125,76.5262 118.125,73.6929 122.5,71.5 Z"/></g>
<g><path style="opacity:1" fill="#fe9900" d="M 35.5,96.5 C 41.8421,96.3338 48.1754,96.5005 54.5,97C 51.2361,103.026 48.0694,109.192 45,115.5C 43.9196,113.004 42.5862,110.67 41,108.5C 40.0853,109.328 39.4186,110.328 39,111.5C 36.8974,106.698 35.7308,101.698 35.5,96.5 Z"/></g>
<g><path style="opacity:1" fill="#fe9900" d="M 95.5,96.5 C 106.5,96.5 117.5,96.5 128.5,96.5C 127.353,105.455 124.019,113.455 118.5,120.5C 110.044,113.049 102.378,105.049 95.5,96.5 Z"/></g>
<g><path style="opacity:1" fill="#fe9900" d="M 90.5,108.5 C 97.9368,114.433 104.937,120.933 111.5,128C 104.131,133.736 95.7975,137.236 86.5,138.5C 86.3335,129.161 86.5002,119.827 87,110.5C 88.3024,109.915 89.469,109.249 90.5,108.5 Z"/></g>
<g><path style="opacity:1" fill="#fe9900" d="M 75.5,124.5 C 76.4861,128.97 76.8195,133.637 76.5,138.5C 71.182,138.087 66.182,136.587 61.5,134C 66.0594,130.563 70.7261,127.396 75.5,124.5 Z"/></g>
<g><path style="opacity:1" fill="#fefffe" d="M -0.5,131.5 C 6.25968,171.928 29.593,196.928 69.5,206.5C 46.1667,206.5 22.8333,206.5 -0.5,206.5C -0.5,181.5 -0.5,156.5 -0.5,131.5 Z"/></g>
<g><path style="opacity:1" fill="#fefffe" d="M 165.5,133.5 C 165.5,157.833 165.5,182.167 165.5,206.5C 142.167,206.5 118.833,206.5 95.5,206.5C 134.169,196.831 157.503,172.498 165.5,133.5 Z"/></g>
</svg>

<svg xmlns="http://www.w3.org/2000/svg" width="166" height="207" style="shape-rendering:geometricPrecision;text-rendering:geometricPrecision;image-rendering:optimizeQuality;fill-rule:evenodd;clip-rule:evenodd"><path style="opacity:1" d="M-.5-.5h166v134c-7.997 38.998-31.331 63.331-70 73h-26c-39.907-9.572-63.24-34.572-70-75V-.5z"/><path style="opacity:1" fill="#fe9900" d="M3.5 3.5h137c-2.243 7.816-6.077 14.816-11.5 21l-4-6a695.204 695.204 0 0 1-14 25 16.08 16.08 0 0 1-2.5-5c-.667-1.333-1.333-1.333-2 0-3.517 7.697-7.017 15.364-10.5 23l-4-6-5 10c-.5-6.658-.666-13.325-.5-20 3.65-.142 7.15.525 10.5 2l1.5-1a55.098 55.098 0 0 0-6-6.5 41.352 41.352 0 0 0 8-4c-10.538-3.872-21.204-4.372-32-1.5a76.563 76.563 0 0 1-13.5-12l-3 18C44.089 45.2 37.589 51.367 32.5 59c-5.696.17-11.362.67-17 1.5l10 14c-2.79 9.519-3.623 19.186-2.5 29a252.45 252.45 0 0 1-8.5 12.5c4.702.172 9.369.672 14 1.5a80.066 80.066 0 0 0 4 7.5c-1.067 2.639-2.734 4.805-5 6.5a48.145 48.145 0 0 1-2.5-5 119.808 119.808 0 0 1-17 24 77.833 77.833 0 0 1-4-17c-.5-43.332-.667-86.665-.5-130z"/><path style="opacity:1" fill="#006632" d="M142.5 3.5h19a91.124 91.124 0 0 1-1 19 99.852 99.852 0 0 0-19 18.5 57.686 57.686 0 0 1 8 3c-9.825 4.828-18.159 11.495-25 20a12.8 12.8 0 0 1 6 3c-9.369 2.85-17.702 7.517-25 14a54.644 54.644 0 0 1 7 2 157.421 157.421 0 0 0-24 18c3.202.198 6.202 1.031 9 2.5a141.766 141.766 0 0 0-24 13.5 28.04 28.04 0 0 1 5 1.5c1.021.502 1.188 1.168.5 2A264.07 264.07 0 0 0 56.5 135l9 3c-9.94 3.301-18.606 8.635-26 16a22.507 22.507 0 0 0 7 2A325.672 325.672 0 0 0 24 176.5c-6.11-5.677-10.776-12.343-14-20-.667-1.667-.667-3.333 0-5a142.27 142.27 0 0 0 14.5-20 48.145 48.145 0 0 1 2.5 5 148.872 148.872 0 0 0 14-24 36.35 36.35 0 0 1 3 8 517.596 517.596 0 0 0 14-27c-.568 10.415 1.765 11.415 7 3a226.973 226.973 0 0 1 7-19 57.682 57.682 0 0 1 3 8c7.16-7.641 12.826-16.308 17-26a16.094 16.094 0 0 1 2.5 5c.667 1.333 1.333 1.333 2 0a507.972 507.972 0 0 1 11-23c1.306 1.412 2.14 3.079 2.5 5 .667 1.333 1.333 1.333 2 0a445.828 445.828 0 0 0 13-25c1.163 1.785 1.83 3.785 2 6 1.147.958 2.147.625 3-1 5.751-6.837 9.917-14.503 12.5-23z"/><path style="opacity:1" fill="#fe9900" d="M159.5 24.5c1.333 18.321 2 36.988 2 56l-.5 56c-7.851 35.851-29.685 57.685-65.5 65.5-27.825 3.806-51.491-4.194-71-24l25-23a54.642 54.642 0 0 0-7-2l9-6.5a222.246 222.246 0 0 0 2.5 12 138.746 138.746 0 0 1 12-10c10.667 2.667 21.333 2.667 32 0 3.655 2.986 7.322 5.986 11 9a368.245 368.245 0 0 1 4-15c7.734-5.613 14.234-12.446 19.5-20.5a90.354 90.354 0 0 0 15-2c-3.92-3.09-6.92-6.923-9-11.5 2.577-10.523 2.577-21.023 0-31.5a77.5 77.5 0 0 1 10-11l-15-3a18.083 18.083 0 0 1-2-3.5c6.34-6.495 13.673-11.662 22-15.5a54.826 54.826 0 0 0-9-4 110.169 110.169 0 0 1 15-15.5zM71.5 45.5h5c.166 11.005 0 22.005-.5 33L52.5 55c5.868-4.267 12.201-7.434 19-9.5zM45.5 61.5l21 21c1.083.865 1.25 1.865.5 3a252.776 252.776 0 0 1-31.5 1c1.007-9.37 4.34-17.704 10-25z"/><path style="opacity:1" fill="#fe9900" d="M122.5 71.5c1.25.077 2.083.744 2.5 2a356.023 356.023 0 0 1 3.5 12.5 72.496 72.496 0 0 1-17 0c5.558-2.803 5.225-4.803-1-6 3.625-3.474 7.625-6.307 12-8.5zM35.5 96.5c6.342-.166 12.675 0 19 .5a477.667 477.667 0 0 0-9.5 18.5 36.17 36.17 0 0 0-4-7 7.292 7.292 0 0 0-2 3 41.702 41.702 0 0 1-3.5-15zM95.5 96.5h33c-1.147 8.955-4.481 16.955-10 24-8.456-7.451-16.122-15.451-23-24zM90.5 108.5a192.294 192.294 0 0 1 21 19.5c-7.369 5.736-15.703 9.236-25 10.5-.166-9.339 0-18.673.5-28a19.588 19.588 0 0 0 3.5-2zM75.5 124.5c.986 4.47 1.32 9.137 1 14a36.516 36.516 0 0 1-15-4.5 168.057 168.057 0 0 1 14-9.5z"/><path style="opacity:1" fill="#fefffe" d="M-.5 131.5c6.76 40.428 30.093 65.428 70 75h-70v-75zM165.5 133.5v73h-70c38.669-9.669 62.003-34.002 70-73z"/></svg>
